src/16/panel/steam_tray_mono.svg

<svg xmlns="http://www.w3.org/2000/svg" width="16" height="16" version="1.1">
 <defs>
  <style id="current-color-scheme" type="text/css">
   .ColorScheme-Text { color:#bebebe; } .ColorScheme-Highlight { color:#5294e2; }
  </style>
 </defs>
 <path style="fill:currentColor" class="ColorScheme-Text" d="M 13 3 C 11.434273 3.0003112 10.132088 4.2046834 10.009766 5.765625 L 7.9121094 9.0351562 C 7.7759465 9.012075 7.638105 9.0003157 7.5 9 C 7.0407303 9.0012287 6.5906741 9.1289473 6.1992188 9.3691406 L 4.9921875 8.6875 A 2.5 2.5 0 0 0 5 8.5 A 2.5 2.5 0 0 0 2.5 6 A 2.5 2.5 0 0 0 0 8.5 A 2.5 2.5 0 0 0 2.5 11 A 2.5 2.5 0 0 0 4.0488281 10.458984 L 5.0507812 11.015625 C 5.0181303 11.175046 5.0011222 11.337274 5 11.5 C 5 12.880712 6.1192881 14 7.5 14 C 8.8807119 14 10 12.880712 10 11.5 C 9.9994597 11.394835 9.9922796 11.289808 9.9785156 11.185547 L 12.576172 8.9667969 C 12.716485 8.9878733 12.858117 8.9989689 13 9 C 14.656854 9 16 7.6568542 16 6 C 16 4.3431458 14.656854 3 13 3 z M 13 4 C 14.104569 4 15 4.8954305 15 6 C 15 7.1045695 14.104569 8 13 8 C 11.89543 8 11 7.1045695 11 6 C 11 4.8954305 11.89543 4 13 4 z M 13 5 C 12.447715 5 12 5.4477153 12 6 C 12 6.5522847 12.447715 7 13 7 C 13.552285 7 14 6.5522847 14 6 C 14 5.4477153 13.552285 5 13 5 z M 2.5 7 A 1.5 1.5 0 0 1 3.9433594 8.0957031 L 3.5039062 7.8476562 L 3.4863281 7.8457031 A 1 1 0 0 0 3 7.7207031 A 1 1 0 0 0 2 8.7207031 A 1 1 0 0 0 2.5039062 9.5859375 L 2.5117188 9.6035156 L 3.0429688 9.8984375 A 1.5 1.5 0 0 1 2.5 10 A 1.5 1.5 0 0 1 1 8.5 A 1.5 1.5 0 0 1 2.5 7 z M 7.4609375 10 C 7.4739578 9.9998305 7.4869797 9.9998305 7.5 10 C 8.3284271 10 9 10.671573 9 11.5 C 9 12.328427 8.3284271 13 7.5 13 C 6.6975839 12.999742 6.0374766 12.368035 6.0019531 11.566406 L 6.5 11.853516 C 6.9956 12.139516 7.6175312 11.983906 7.8945312 11.503906 C 8.1715313 11.023906 7.9956 10.407094 7.5 10.121094 L 7.3125 10.013672 C 7.361722 10.006657 7.4112623 10.002094 7.4609375 10 z"/>
 <path style="fill:currentColor" d="M 0.0723,6.9863 A 8,8 0 0 0 0.0195,7.602 8,8 0 0 1 0.0723,6.9863 Z"/>
 <path style="fill:currentColor" d="M 0,8 A 8,8 0 0 0 0.0391,8.725 8,8 0 0 1 0,8 Z"/>
</svg>

<svg xmlns="http://www.w3.org/2000/svg" width="16" height="16"><defs><style id="current-color-scheme" type="text/css"></style></defs><path d="M13 3a3 3 0 0 0-2.99 2.766l-2.098 3.27A2.5 2.5 0 0 0 6.2 9.37l-1.207-.682A2.5 2.5 0 0 0 5 8.5 2.5 2.5 0 0 0 2.5 6 2.5 2.5 0 0 0 0 8.5 2.5 2.5 0 0 0 2.5 11a2.5 2.5 0 0 0 1.549-.541l1.002.557A2.5 2.5 0 0 0 5 11.5a2.5 2.5 0 1 0 4.979-.314l2.597-2.22A3 3 0 0 0 13 9a3 3 0 0 0 0-6zm0 1a2 2 0 1 1 0 4 2 2 0 0 1 0-4zm0 1a1 1 0 1 0 0 2 1 1 0 0 0 0-2zM2.5 7a1.5 1.5 0 0 1 1.443 1.096l-.44-.248-.017-.002A1 1 0 0 0 3 7.72a1 1 0 0 0-1 1 1 1 0 0 0 .504.865l.008.018.531.294A1.5 1.5 0 0 1 2.5 10 1.5 1.5 0 0 1 1 8.5 1.5 1.5 0 0 1 2.5 7zm4.96 3h.04a1.5 1.5 0 1 1-1.498 1.566l.498.288c.496.286 1.118.13 1.395-.35.277-.48.1-1.097-.395-1.383l-.188-.107A1.5 1.5 0 0 1 7.462 10z" fill="currentColor" color="#bebebe"/><path d="M.072 6.986a8 8 0 0 0-.052.616 8 8 0 0 1 .052-.616zM0 8a8 8 0 0 0 .04.725A8 8 0 0 1 0 8z" fill="currentColor"/></svg>
